lib/flags/m/LIE.svg

<svg xmlns="http://www.w3.org/2000/svg" fill="none" viewBox="0 0 20 15"><mask id="LIE_svg__a" width="20" height="15" x="0" y="0" mask-type="alpha" maskUnits="userSpaceOnUse"><path fill="#fff" d="M0 0H20V15H0z"/></mask><g mask="url(#LIE_svg__a)"><path fill="#E31D1C" fill-rule="evenodd" d="M0 0V15H20V0H0Z" clip-rule="evenodd"/><mask id="LIE_svg__b" width="20" height="15" x="0" y="0" mask-type="alpha" maskUnits="userSpaceOnUse"><path fill="#fff" fill-rule="evenodd" d="M0 0V15H20V0H0Z" clip-rule="evenodd"/></mask><g mask="url(#LIE_svg__b)"><path fill="#2E42A5" fill-rule="evenodd" d="M0 0V7.5H20V0H0Z" clip-rule="evenodd"/><path fill="#000" fill-rule="evenodd" d="M2.99902 6.90828C2.99902 6.90828 3.75319 7.37771 5.5008 7.37771C7.2484 7.37771 8.17603 6.90828 8.17603 6.90828C8.17603 6.90828 6.8055 6.11157 5.58008 6.11157C4.35465 6.11157 2.99902 6.90828 2.99902 6.90828Z" clip-rule="evenodd"/><path fill="#FFD83D" stroke="#000" stroke-width=".5" d="M3.04419 4.21393L2.82811 4.33966L2.90042 4.46393H3.04419H8.24746H8.43065L8.48584 4.28926L8.24746 4.21393C8.48584 4.28926 8.48587 4.28918 8.48589 4.2891L8.48595 4.28891L8.4861 4.28845L8.4865 4.28717L8.48771 4.28323L8.49168 4.26995C8.49497 4.25877 8.49948 4.24297 8.50484 4.22304C8.51557 4.18323 8.52976 4.12671 8.54441 4.0574C8.57358 3.91944 8.60528 3.72749 8.61412 3.51386C8.63121 3.10079 8.56515 2.53483 8.13861 2.16404C7.70011 1.78285 7.14892 1.84879 6.7066 1.95934C6.5549 1.99726 6.3981 2.04553 6.2543 2.08981C6.18774 2.1103 6.12397 2.12994 6.06477 2.14729C5.86398 2.20616 5.70812 2.24145 5.58821 2.24145C5.46934 2.24145 5.3331 2.20926 5.16098 2.15508C5.11124 2.13942 5.057 2.12137 4.99979 2.10232C4.87358 2.06031 4.73292 2.01349 4.59441 1.97703C4.16917 1.86512 3.66627 1.82045 3.11055 2.13518C2.81514 2.30248 2.64303 2.53812 2.56177 2.79746C2.48283 3.04938 2.49371 3.30927 2.53407 3.5313C2.57468 3.75477 2.64803 3.95551 2.70966 4.09837C2.74074 4.17041 2.76949 4.22923 2.79081 4.27064C2.80149 4.29137 2.81035 4.30783 2.81676 4.31949L2.82449 4.33334L2.82684 4.33747L2.82761 4.33881L2.8279 4.3393L2.82801 4.33949C2.82806 4.33958 2.82811 4.33966 3.04419 4.21393Z"/><path fill="#FFD83D" stroke="#000" stroke-width=".5" d="M2.50171 4.45448 2.38515 4.23331 2.19219 4.335 2.26678 4.53997 2.98738 6.5202 3.06789 6.74143 3.29348 6.67436 3.2935 6.67436 3.29351 6.67435 3.29355 6.67434 3.2939 6.67424 3.29596 6.67363 3.30511 6.67098 3.34276 6.66037C3.37617 6.6511 3.42578 6.6377 3.4893 6.62154 3.61641 6.58919 3.79883 6.54588 4.01825 6.50254 4.45868 6.41553 5.04096 6.32984 5.62134 6.32984 6.20148 6.32984 6.77258 6.41547 7.20146 6.5023 7.41517 6.54557 7.5919 6.5888 7.7147 6.62106 7.77606 6.63718 7.82387 6.65053 7.85598 6.65975L7.89209 6.6703 7.90081 6.67292 7.90274 6.6735 7.90302 6.67359 7.90308 6.67361 7.90309 6.67361 7.90311 6.67362 8.12831 6.74311 8.2109 6.52228 8.95146 4.54205 9.02855 4.33591 8.83385 4.23331 8.7173 4.45448C8.83385 4.23331 8.83376 4.23326 8.83366 4.23321L8.83344 4.23309 8.83293 4.23283 8.83164 4.23215 8.82792 4.23024 8.81594 4.22424C8.80594 4.21931 8.79191 4.21256 8.77384 4.20425 8.73769 4.18763 8.68538 4.16479 8.61679 4.13785 8.47962 4.08395 8.27744 4.01367 8.00952 3.94392 7.47348 3.80437 6.67538 3.66724 5.6095 3.66724 4.54363 3.66724 3.74552 3.80437 3.20949 3.94392 2.94157 4.01367 2.73939 4.08395 2.60221 4.13785 2.53363 4.16479 2.48131 4.18763 2.44517 4.20425 2.42709 4.21256 2.41306 4.21931 2.40307 4.22424L2.39109 4.23024 2.38737 4.23215 2.38607 4.23283 2.38557 4.23309 2.38535 4.23321C2.38525 4.23326 2.38515 4.23331 2.50171 4.45448zM5.54621 2.75948C5.96669 2.75948 6.21637 2.35459 6.21637 1.98118 6.21637 1.60777 5.96669 1.20288 5.54621 1.20288 5.12572 1.20288 4.87604 1.60777 4.87604 1.98118 4.87604 2.35459 5.12572 2.75948 5.54621 2.75948z"/><mask id="LIE_svg__c" width="3" height="4" x="4.074" y="-1" fill="#000" maskUnits="userSpaceOnUse"><path fill="#fff" d="M4.074-1H7.074V3H4.074z"/><path fill-rule="evenodd" d="M5.7038 0H5.38867L5.42924 0.576701L5.07355 0.528302V0.924528L5.4347 0.874782L5.38867 1.78302H5.7038L5.65715 0.873254L6.01893 0.924528V0.528302L5.6637 0.579291L5.7038 0Z" clip-rule="evenodd"/></mask><path fill="#FFD83D" fill-rule="evenodd" d="M5.7038 0H5.38867L5.42924 0.576701L5.07355 0.528302V0.924528L5.4347 0.874782L5.38867 1.78302H5.7038L5.65715 0.873254L6.01893 0.924528V0.528302L5.6637 0.579291L5.7038 0Z" clip-rule="evenodd"/><path fill="#000" d="M5.38867 0V-0.5H4.85227L4.88991 0.0350833L5.38867 0ZM5.7038 0L6.20261 0.0345249L6.2396 -0.5H5.7038V0ZM5.42924 0.576701L5.36182 1.07214L5.97115 1.15505L5.92801 0.541618L5.42924 0.576701ZM5.07355 0.528302L5.14096 0.0328674L4.57355 -0.0443408V0.528302H5.07355ZM5.07355 0.924528H4.57355V1.49812L5.14177 1.41985L5.07355 0.924528ZM5.4347 0.874782L5.93406 0.900089L5.96462 0.297069L5.36648 0.379459L5.4347 0.874782ZM5.38867 1.78302L4.88931 1.75771L4.86269 2.28302H5.38867V1.78302ZM5.7038 1.78302V2.28302H6.2301L6.20314 1.75741L5.7038 1.78302ZM5.65715 0.873254L5.72731 0.378201L5.12674 0.293084L5.1578 0.89886L5.65715 0.873254ZM6.01893 0.924528L5.94876 1.41958L6.51893 1.50039V0.924528H6.01893ZM6.01893 0.528302H6.51893V-0.048594L5.94788 0.0333747L6.01893 0.528302ZM5.6637 0.579291L5.1649 0.544766L5.12217 1.16215L5.73475 1.07422L5.6637 0.579291ZM5.38867 0.5H5.7038V-0.5H5.38867V0.5ZM5.92801 0.541618L5.88744 -0.0350833L4.88991 0.0350833L4.93047 0.611784L5.92801 0.541618ZM5.00613 1.02374L5.36182 1.07214L5.49665 0.0812664L5.14096 0.0328674L5.00613 1.02374ZM5.57355 0.924528V0.528302H4.57355V0.924528H5.57355ZM5.36648 0.379459L5.00532 0.429205L5.14177 1.41985L5.50293 1.37011L5.36648 0.379459ZM5.88803 1.80833L5.93406 0.900089L4.93534 0.849475L4.88931 1.75771L5.88803 1.80833ZM5.7038 1.28302H5.38867V2.28302H5.7038V1.28302ZM5.1578 0.89886L5.20446 1.80862L6.20314 1.75741L6.15649 0.847648L5.1578 0.89886ZM6.08909 0.429476L5.72731 0.378201L5.58698 1.36831L5.94876 1.41958L6.08909 0.429476ZM5.51893 0.528302V0.924528H6.51893V0.528302H5.51893ZM5.73475 1.07422L6.08997 1.02323L5.94788 0.0333747L5.59266 0.084364L5.73475 1.07422ZM5.20499 -0.0345249L5.1649 0.544766L6.16251 0.613816L6.20261 0.0345249L5.20499 -0.0345249Z" mask="url(#LIE_svg__c)"/></g></g></svg>

<svg xmlns="http://www.w3.org/2000/svg" fill="none" viewBox="0 0 20 15"><mask id="LIE_svg__a" width="20" height="15" x="0" y="0" maskUnits="userSpaceOnUse"><path fill="#fff" d="M0 0h20v15H0z"/></mask><g mask="url(#LIE_svg__a)"><path fill="#E31D1C" fill-rule="evenodd" d="M0 0v15h20V0H0z" clip-rule="evenodd"/><mask id="LIE_svg__b" width="20" height="15" x="0" y="0" maskUnits="userSpaceOnUse"><path fill="#fff" fill-rule="evenodd" d="M0 0v15h20V0H0z" clip-rule="evenodd"/></mask><g mask="url(#LIE_svg__b)"><path fill="#2E42A5" fill-rule="evenodd" d="M0 0v7.5h20V0H0z" clip-rule="evenodd"/><path fill="#000" fill-rule="evenodd" d="M2.999 6.908s.754.47 2.502.47c1.747 0 2.675-.47 2.675-.47s-1.37-.796-2.596-.796c-1.225 0-2.58.796-2.58.796z" clip-rule="evenodd"/><path fill="#FFD83D" stroke="#000" stroke-width=".5" d="M3.044 4.214l-.216.126.072.124h5.531l.055-.175-.239-.075.239.075h0v-.002l.002-.004.004-.013a2.141 2.141 0 00.052-.213c.03-.138.061-.33.07-.543.017-.413-.049-.98-.475-1.35-.439-.381-.99-.315-1.432-.205a8.9 8.9 0 00-.453.13l-.19.058c-.2.06-.356.094-.476.094a1.48 1.48 0 01-.427-.086A10.7 10.7 0 015 2.102a6.292 6.292 0 00-.406-.125c-.425-.112-.928-.157-1.484.158a1.141 1.141 0 00-.548.662 1.543 1.543 0 00-.028.734 2.662 2.662 0 00.283.788l.007.014.003.004v.002h.001l.216-.125z"/><path fill="#FFD83D" stroke="#000" stroke-width=".5" d="M2.502 4.454l-.117-.22-.193.101.075.205.72 1.98.08.221.226-.067h.003l.01-.003.037-.01.146-.04c.127-.032.31-.075.53-.118A8.526 8.526 0 015.62 6.33c.58 0 1.152.085 1.58.172a9.313 9.313 0 01.655.158l.036.01.009.003h.002l.225.07.083-.22.74-1.981.078-.206-.195-.103-.117.221.117-.22h0l-.001-.001h-.001l-.004-.003-.012-.006a3.03 3.03 0 00-.2-.086 5.368 5.368 0 00-.607-.194c-.536-.14-1.334-.277-2.4-.277-1.065 0-1.863.137-2.4.277-.267.07-.47.14-.607.194a3.034 3.034 0 00-.199.086l-.012.006-.004.002h0l-.001.001h0l.116.221zM5.546 2.76c.42 0 .67-.405.67-.779 0-.373-.25-.778-.67-.778-.42 0-.67.405-.67.778 0 .374.25.778.67.778z"/><mask id="LIE_svg__c" width="3" height="4" x="4.074" y="-1" fill="#000" maskUnits="userSpaceOnUse"><path fill="#fff" d="M4.074-1h3v4h-3z"/><path fill-rule="evenodd" d="M5.704 0h-.315l.04.577-.355-.049v.397l.36-.05-.045.908h.315l-.047-.91.362.052V.528L5.664.58l.04-.58z" clip-rule="evenodd"/></mask><path fill="#FFD83D" fill-rule="evenodd" d="M5.704 0h-.315l.04.577-.355-.049v.397l.36-.05-.045.908h.315l-.047-.91.362.052V.528L5.664.58l.04-.58z" clip-rule="evenodd"/><path fill="#000" d="M5.389 0v-.5h-.537l.038.535L5.389 0zm.315 0l.499.035L6.24-.5h-.536V0zm-.275.577l-.067.495.61.083-.044-.613-.499.035zM5.074.528L5.14.033l-.567-.077v.572h.5zm0 .397h-.5v.573l.568-.078-.068-.495zm.36-.05l.5.025.03-.603-.598.082.069.496zm-.045.908l-.5-.025-.026.525h.526v-.5zm.315 0v.5h.526l-.027-.526-.5.026zm-.047-.91l.07-.495-.6-.085.03.606.5-.026zm.362.052l-.07.495.57.08V.925h-.5zm0-.397h.5v-.577l-.571.082.07.495zM5.664.58l-.5-.034-.042.617.613-.088L5.664.58zM5.389.5h.315v-1h-.315v1zm.539.042l-.04-.577-.998.07.04.577.998-.07zm-.922.482l.356.048.135-.99-.356-.05-.135.992zm.568-.1V.529h-1v.397h1zM5.366.38l-.36.05.136.99.36-.049-.136-.99zm.522 1.43L5.934.9 4.935.85l-.046.908.999.05zm-.184-.526h-.315v1h.315v-1zM5.158.899l.046.91 1-.052-.048-.91L5.158.9zm.931-.47L5.727.38l-.14.99.362.05.14-.99zm-.57.1v.396h1V.528h-1zm.216.545l.355-.05-.142-.99-.355.05.142.99zm-.53-1.109l-.04.58.997.069.04-.58-.997-.069z" mask="url(#LIE_svg__c)"/></g></g></svg>
